bernoullicharts/2014_add_x_0_1_bits.svg

<?xml version="1.0" encoding="utf-8" standalone="no"?>
<!DOCTYPE svg PUBLIC "-//W3C//DTD SVG 1.1//EN"
  "http://www.w3.org/Graphics/SVG/1.1/DTD/svg11.dtd">
<!-- Created with matplotlib (https://matplotlib.org/) -->
<svg height="345.6pt" version="1.1" viewBox="0 0 460.8 345.6" width="460.8pt" xmlns="http://www.w3.org/2000/svg" xmlns:xlink="http://www.w3.org/1999/xlink">
 <defs>
  <style type="text/css">
*{stroke-linecap:butt;stroke-linejoin:round;}
  </style>
 </defs>
 <g id="figure_1">
  <g id="patch_1">
   <path d="M 0 345.6 
L 460.8 345.6 
L 460.8 0 
L 0 0 
z
" style="fill:#ffffff;"/>
  </g>
  <g id="axes_1">
   <g id="patch_2">
    <path d="M 57.6 307.584 
L 414.72 307.584 
L 414.72 41.472 
L 57.6 41.472 
z
" style="fill:#ffffff;"/>
   </g>
   <g id="matplotlib.axis_1">
    <g id="xtick_1">
     <g id="line2d_1">
      <defs>
       <path d="M 0 0 
L 0 3.5 
" id="mbf67d85719" style="stroke:#000000;stroke-width:0.8;"/>
      </defs>
      <g>
       <use style="stroke:#000000;stroke-width:0.8;" x="73.789864" xlink:href="#mbf67d85719" y="307.584"/>
      </g>
     </g>
     <g id="text_1">
      <text style="font-family:DejaVu Sans;font-size:10px;font-style:normal;font-weight:normal;text-anchor:middle;" transform="rotate(-0, 73.789864, 322.182437)" x="73.789864" y="322.182437">0.0</text>
     </g>
    </g>
    <g id="xtick_2">
     <g id="line2d_2">
      <g>
       <use style="stroke:#000000;stroke-width:0.8;" x="116.652837" xlink:href="#mbf67d85719" y="307.584"/>
      </g>
     </g>
     <g id="text_2">
      <text style="font-family:DejaVu Sans;font-size:10px;font-style:normal;font-weight:normal;text-anchor:middle;" transform="rotate(-0, 116.652837, 322.182437)" x="116.652837" y="322.182437">0.1</text>
     </g>
    </g>
    <g id="xtick_3">
     <g id="line2d_3">
      <g>
       <use style="stroke:#000000;stroke-width:0.8;" x="159.515809" xlink:href="#mbf67d85719" y="307.584"/>
      </g>
     </g>
     <g id="text_3">
      <text style="font-family:DejaVu Sans;font-size:10px;font-style:normal;font-weight:normal;text-anchor:middle;" transform="rotate(-0, 159.515809, 322.182437)" x="159.515809" y="322.182437">0.2</text>
     </g>
    </g>
    <g id="xtick_4">
     <g id="line2d_4">
      <g>
       <use style="stroke:#000000;stroke-width:0.8;" x="202.378782" xlink:href="#mbf67d85719" y="307.584"/>
      </g>
     </g>
     <g id="text_4">
      <text style="font-family:DejaVu Sans;font-size:10px;font-style:normal;font-weight:normal;text-anchor:middle;" transform="rotate(-0, 202.378782, 322.182437)" x="202.378782" y="322.182437">0.3</text>
     </g>
    </g>
    <g id="xtick_5">
     <g id="line2d_5">
      <g>
       <use style="stroke:#000000;stroke-width:0.8;" x="245.241755" xlink:href="#mbf67d85719" y="307.584"/>
      </g>
     </g>
     <g id="text_5">
      <text style="font-family:DejaVu Sans;font-size:10px;font-style:normal;font-weight:normal;text-anchor:middle;" transform="rotate(-0, 245.241755, 322.182437)" x="245.241755" y="322.182437">0.4</text>
     </g>
    </g>
    <g id="xtick_6">
     <g id="line2d_6">
      <g>
       <use style="stroke:#000000;stroke-width:0.8;" x="288.104727" xlink:href="#mbf67d85719" y="307.584"/>
      </g>
     </g>
     <g id="text_6">
      <text style="font-family:DejaVu Sans;font-size:10px;font-style:normal;font-weight:normal;text-anchor:middle;" transform="rotate(-0, 288.104727, 322.182437)" x="288.104727" y="322.182437">0.5</text>
     </g>
    </g>
    <g id="xtick_7">
     <g id="line2d_7">
      <g>
       <use style="stroke:#000000;stroke-width:0.8;" x="330.9677" xlink:href="#mbf67d85719" y="307.584"/>
      </g>
     </g>
     <g id="text_7">
      <text style="font-family:DejaVu Sans;font-size:10px;font-style:normal;font-weight:normal;text-anchor:middle;" transform="rotate(-0, 330.9677, 322.182437)" x="330.9677" y="322.182437">0.6</text>
     </g>
    </g>
    <g id="xtick_8">
     <g id="line2d_8">
      <g>
       <use style="stroke:#000000;stroke-width:0.8;" x="373.830672" xlink:href="#mbf67d85719" y="307.584"/>
      </g>
     </g>
     <g id="text_8">
      <text style="font-family:DejaVu Sans;font-size:10px;font-style:normal;font-weight:normal;text-anchor:middle;" transform="rotate(-0, 373.830672, 322.182437)" x="373.830672" y="322.182437">0.7</text>
     </g>
    </g>
    <g id="text_9">
     <text style="font-family:DejaVu Sans;font-size:10px;font-style:normal;font-weight:normal;text-anchor:middle;" transform="rotate(-0, 236.16, 335.860562)" x="236.16" y="335.860562">Probability</text>
    </g>
   </g>
   <g id="matplotlib.axis_2">
    <g id="ytick_1">
     <g id="line2d_9">
      <defs>
       <path d="M 0 0 
L -3.5 0 
" id="m912b2c2821" style="stroke:#000000;stroke-width:0.8;"/>
      </defs>
      <g>
       <use style="stroke:#000000;stroke-width:0.8;" x="57.6" xlink:href="#m912b2c2821" y="264.920811"/>
      </g>
     </g>
     <g id="text_10">
      <text style="font-family:DejaVu Sans;font-size:10px;font-style:normal;font-weight:normal;text-anchor:end;" transform="rotate(-0, 50.6, 268.72003)" x="50.6" y="268.72003">100</text>
     </g>
    </g>
    <g id="ytick_2">
     <g id="line2d_10">
      <g>
       <use style="stroke:#000000;stroke-width:0.8;" x="57.6" xlink:href="#m912b2c2821" y="213.334102"/>
      </g>
     </g>
     <g id="text_11">
      <text style="font-family:DejaVu Sans;font-size:10px;font-style:normal;font-weight:normal;text-anchor:end;" transform="rotate(-0, 50.6, 217.133321)" x="50.6" y="217.133321">200</text>
     </g>
    </g>
    <g id="ytick_3">
     <g id="line2d_11">
      <g>
       <use style="stroke:#000000;stroke-width:0.8;" x="57.6" xlink:href="#m912b2c2821" y="161.747393"/>
      </g>
     </g>
     <g id="text_12">
      <text style="font-family:DejaVu Sans;font-size:10px;font-style:normal;font-weight:normal;text-anchor:end;" transform="rotate(-0, 50.6, 165.546612)" x="50.6" y="165.546612">300</text>
     </g>
    </g>
    <g id="ytick_4">
     <g id="line2d_12">
      <g>
       <use style="stroke:#000000;stroke-width:0.8;" x="57.6" xlink:href="#m912b2c2821" y="110.160684"/>
      </g>
     </g>
     <g id="text_13">
      <text style="font-family:DejaVu Sans;font-size:10px;font-style:normal;font-weight:normal;text-anchor:end;" transform="rotate(-0, 50.6, 113.959902)" x="50.6" y="113.959902">400</text>
     </g>
    </g>
    <g id="ytick_5">
     <g id="line2d_13">
      <g>
       <use style="stroke:#000000;stroke-width:0.8;" x="57.6" xlink:href="#m912b2c2821" y="58.573974"/>
      </g>
     </g>
     <g id="text_14">
      <text style="font-family:DejaVu Sans;font-size:10px;font-style:normal;font-weight:normal;text-anchor:end;" transform="rotate(-0, 50.6, 62.373193)" x="50.6" y="62.373193">500</text>
     </g>
    </g>
    <g id="text_15">
     <text style="font-family:DejaVu Sans;font-size:10px;font-style:normal;font-weight:normal;text-anchor:middle;" transform="rotate(-90, 25.432812, 174.528)" x="25.432812" y="174.528">Average Bits Consumed Per Call</text>
    </g>
   </g>
   <g id="line2d_14">
    <path clip-path="url(#paea371bb87)" d="M 73.832727 295.469429 
L 78.161455 294.498567 
L 82.490182 293.950716 
L 86.818909 294.270554 
L 91.147636 293.000489 
L 95.476364 293.86405 
L 99.805091 294.461424 
L 104.133818 293.937304 
L 108.462545 291.167097 
L 112.791273 294.933959 
L 117.12 294.095159 
L 121.448727 294.790548 
L 125.777455 294.57801 
L 130.106182 292.05542 
L 134.434909 290.97829 
L 138.763636 295.488 
L 143.092364 294.179761 
M 151.749818 293.607149 
L 156.078545 293.795956 
L 160.407273 295.191892 
L 164.736 294.867928 
L 169.064727 293.836194 
L 173.393455 290.691468 
L 177.722182 292.900411 
L 182.050909 289.878461 
L 186.379636 292.473273 
L 190.708364 294.806024 
L 195.037091 285.95684 
L 199.365818 293.122234 
L 203.694545 289.106724 
L 208.023273 287.96769 
L 212.352 289.249103 
L 216.680727 290.204489 
L 221.009455 286.898813 
L 225.338182 287.0577 
L 229.666909 288.724982 
L 233.995636 286.988574 
L 238.324364 285.336767 
L 242.653091 285.797953 
L 246.981818 284.603204 
L 251.310545 282.93489 
L 255.639273 283.403297 
M 264.296727 284.031624 
L 268.625455 286.144615 
L 272.954182 281.122133 
L 277.282909 282.186883 
L 281.611636 281.214989 
L 285.940364 284.435032 
L 290.269091 278.219865 
L 294.597818 281.705063 
L 298.926545 281.488399 
L 303.255273 279.878894 
L 307.584 278.905968 
L 311.912727 277.844314 
L 316.241455 278.109469 
L 320.570182 268.432834 
L 324.898909 277.91963 
L 329.227636 275.898463 
L 333.556364 268.157361 
M 346.542545 272.670167 
L 350.871273 273.408888 
L 355.2 264.229549 
L 359.528727 267.193722 
L 363.857455 267.09158 
M 381.172364 252.934124 
M 398.487273 240.124112 
" style="fill:none;stroke:#1f77b4;stroke-linecap:square;stroke-width:1.5;"/>
   </g>
   <g id="line2d_15">
    <path clip-path="url(#paea371bb87)" d="M 73.832727 275.840686 
L 78.161455 272.755801 
L 82.490182 275.268073 
L 86.818909 274.385941 
L 91.147636 272.98175 
L 95.476364 273.508967 
L 99.805091 273.334604 
L 104.133818 270.749078 
L 108.462545 273.745234 
L 112.791273 274.092928 
L 117.12 274.62943 
L 121.448727 273.536823 
L 125.777455 275.527039 
L 130.106182 272.857942 
L 134.434909 274.543796 
L 138.763636 266.763489 
L 143.092364 267.959268 
L 147.421091 267.234991 
L 151.749818 266.770711 
L 156.078545 267.715779 
L 160.407273 265.805007 
L 164.736 267.95411 
L 169.064727 264.70002 
L 173.393455 269.502743 
L 177.722182 268.606166 
L 182.050909 267.439274 
L 186.379636 261.974178 
L 190.708364 263.814792 
L 195.037091 257.627482 
L 199.365818 260.498799 
L 203.694545 260.390466 
L 208.023273 262.210446 
L 212.352 258.623106 
L 216.680727 260.140787 
L 221.009455 255.517586 
L 225.338182 251.350412 
L 229.666909 249.700669 
L 233.995636 254.131967 
L 238.324364 252.246989 
L 242.653091 252.132466 
L 246.981818 251.660964 
L 251.310545 246.493007 
L 255.639273 248.895916 
L 259.968 248.233543 
L 264.296727 253.853399 
L 268.625455 233.940929 
L 272.954182 235.192422 
L 277.282909 240.278872 
L 281.611636 232.361344 
L 285.940364 228.86686 
L 290.269091 239.701101 
L 294.597818 227.038627 
L 298.926545 228.699719 
L 303.255273 219.926883 
L 307.584 222.257571 
L 311.912727 212.812045 
L 316.241455 217.317628 
L 320.570182 221.304249 
L 324.898909 216.150736 
L 329.227636 208.295112 
L 333.556364 210.870321 
M 342.213818 193.277189 
L 346.542545 198.933156 
M 363.857455 154.632554 
" style="fill:none;stroke:#ff7f0e;stroke-linecap:square;stroke-width:1.5;"/>
   </g>
   <g id="line2d_16">
    <path clip-path="url(#paea371bb87)" d="M 160.407273 53.568 
L 164.736 71.964852 
M 173.393455 119.876524 
L 177.722182 110.358776 
L 182.050909 134.901669 
M 190.708364 162.048659 
L 195.037091 162.089929 
L 199.365818 181.513356 
L 203.694545 189.893101 
L 208.023273 181.745496 
L 212.352 198.775301 
L 216.680727 210.000569 
L 221.009455 217.421833 
M 229.666909 219.391413 
L 233.995636 213.435212 
L 238.324364 233.985293 
L 242.653091 223.985726 
L 246.981818 230.573349 
L 251.310545 235.390515 
L 255.639273 235.248136 
L 259.968 248.444016 
L 264.296727 246.801496 
L 268.625455 249.970983 
L 272.954182 256.639081 
L 277.282909 260.221262 
M 285.940364 264.724782 
" style="fill:none;stroke:#2ca02c;stroke-linecap:square;stroke-width:1.5;"/>
   </g>
   <g id="patch_3">
    <path d="M 57.6 307.584 
L 57.6 41.472 
" style="fill:none;stroke:#000000;stroke-linecap:square;stroke-linejoin:miter;stroke-width:0.8;"/>
   </g>
   <g id="patch_4">
    <path d="M 414.72 307.584 
L 414.72 41.472 
" style="fill:none;stroke:#000000;stroke-linecap:square;stroke-linejoin:miter;stroke-width:0.8;"/>
   </g>
   <g id="patch_5">
    <path d="M 57.6 307.584 
L 414.72 307.584 
" style="fill:none;stroke:#000000;stroke-linecap:square;stroke-linejoin:miter;stroke-width:0.8;"/>
   </g>
   <g id="patch_6">
    <path d="M 57.6 41.472 
L 414.72 41.472 
" style="fill:none;stroke:#000000;stroke-linecap:square;stroke-linejoin:miter;stroke-width:0.8;"/>
   </g>
   <g id="text_16">
    <text style="font-family:DejaVu Sans;font-size:12px;font-style:normal;font-weight:normal;text-anchor:middle;" transform="rotate(-0, 236.16, 35.472)" x="236.16" y="35.472">Avg. Bits Consumed</text>
   </g>
   <g id="legend_1">
    <g id="patch_7">
     <path d="M 291.171562 93.506375 
L 407.72 93.506375 
Q 409.72 93.506375 409.72 91.506375 
L 409.72 48.472 
Q 409.72 46.472 407.72 46.472 
L 291.171562 46.472 
Q 289.171562 46.472 289.171562 48.472 
L 289.171562 91.506375 
Q 289.171562 93.506375 291.171562 93.506375 
z
" style="fill:#ffffff;opacity:0.8;stroke:#cccccc;stroke-linejoin:miter;"/>
    </g>
    <g id="line2d_17">
     <path d="M 293.171562 54.570438 
L 313.171562 54.570438 
" style="fill:none;stroke:#1f77b4;stroke-linecap:square;stroke-width:1.5;"/>
    </g>
    <g id="line2d_18"/>
    <g id="text_17">
     <text style="font-family:DejaVu Sans;font-size:10px;font-style:normal;font-weight:normal;text-anchor:start;" transform="rotate(-0, 321.171562, 58.070438)" x="321.171562" y="58.070438">2014 Add. x+0.1</text>
    </g>
    <g id="line2d_19">
     <path d="M 293.171562 69.248563 
L 313.171562 69.248563 
" style="fill:none;stroke:#ff7f0e;stroke-linecap:square;stroke-width:1.5;"/>
    </g>
    <g id="line2d_20"/>
    <g id="text_18">
     <text style="font-family:DejaVu Sans;font-size:10px;font-style:normal;font-weight:normal;text-anchor:start;" transform="rotate(-0, 321.171562, 72.748563)" x="321.171562" y="72.748563">2016 Add. x+0.1</text>
    </g>
    <g id="line2d_21">
     <path d="M 293.171562 83.926688 
L 313.171562 83.926688 
" style="fill:none;stroke:#2ca02c;stroke-linecap:square;stroke-width:1.5;"/>
    </g>
    <g id="line2d_22"/>
    <g id="text_19">
     <text style="font-family:DejaVu Sans;font-size:10px;font-style:normal;font-weight:normal;text-anchor:start;" transform="rotate(-0, 321.171562, 87.426688)" x="321.171562" y="87.426688">2019 Add. x+0.1</text>
    </g>
   </g>
  </g>
 </g>
 <defs>
  <clipPath id="paea371bb87">
   <rect height="266.112" width="357.12" x="57.6" y="41.472"/>
  </clipPath>
 </defs>
</svg>

<svg height="460.8" viewBox="0 0 460.8 345.6" width="614.4" xmlns="http://www.w3.org/2000/svg" xmlns:xlink="http://www.w3.org/1999/xlink"><defs><style>*{stroke-linecap:butt;stroke-linejoin:round}</style></defs><g id="figure_1"><path d="M0 345.6h460.8V0H0z" fill="#fff" id="patch_1"/><g id="axes_1"><path d="M57.6 307.584h357.12V41.472H57.6z" fill="#fff" id="patch_2"/><g id="matplotlib.axis_1"><g id="xtick_1"><g id="line2d_1"><defs><path d="M0 0v3.5" id="mbf67d85719" stroke="#000" stroke-width=".8"/></defs><use x="73.79" xlink:href="#mbf67d85719" y="307.584" stroke="#000" stroke-width=".8"/></g><text x="73.79" y="322.182" font-family="DejaVu Sans" font-size="10" font-weight="400" text-anchor="middle" id="text_1">0.0</text></g><g id="xtick_2"><use x="116.653" xlink:href="#mbf67d85719" y="307.584" stroke="#000" stroke-width=".8" id="line2d_2"/><text x="116.653" y="322.182" font-family="DejaVu Sans" font-size="10" font-weight="400" text-anchor="middle" id="text_2">0.1</text></g><g id="xtick_3"><use x="159.516" xlink:href="#mbf67d85719" y="307.584" stroke="#000" stroke-width=".8" id="line2d_3"/><text x="159.516" y="322.182" font-family="DejaVu Sans" font-size="10" font-weight="400" text-anchor="middle" id="text_3">0.2</text></g><g id="xtick_4"><use x="202.379" xlink:href="#mbf67d85719" y="307.584" stroke="#000" stroke-width=".8" id="line2d_4"/><text x="202.379" y="322.182" font-family="DejaVu Sans" font-size="10" font-weight="400" text-anchor="middle" id="text_4">0.3</text></g><g id="xtick_5"><use x="245.242" xlink:href="#mbf67d85719" y="307.584" stroke="#000" stroke-width=".8" id="line2d_5"/><text x="245.242" y="322.182" font-family="DejaVu Sans" font-size="10" font-weight="400" text-anchor="middle" id="text_5">0.4</text></g><g id="xtick_6"><use x="288.105" xlink:href="#mbf67d85719" y="307.584" stroke="#000" stroke-width=".8" id="line2d_6"/><text x="288.105" y="322.182" font-family="DejaVu Sans" font-size="10" font-weight="400" text-anchor="middle" id="text_6">0.5</text></g><g id="xtick_7"><use x="330.968" xlink:href="#mbf67d85719" y="307.584" stroke="#000" stroke-width=".8" id="line2d_7"/><text x="330.968" y="322.182" font-family="DejaVu Sans" font-size="10" font-weight="400" text-anchor="middle" id="text_7">0.6</text></g><g id="xtick_8"><use x="373.831" xlink:href="#mbf67d85719" y="307.584" stroke="#000" stroke-width=".8" id="line2d_8"/><text x="373.831" y="322.182" font-family="DejaVu Sans" font-size="10" font-weight="400" text-anchor="middle" id="text_8">0.7</text></g><text x="236.16" y="335.861" font-family="DejaVu Sans" font-size="10" font-weight="400" text-anchor="middle" id="text_9">Probability</text></g><g id="matplotlib.axis_2"><g id="ytick_1"><g id="line2d_9"><defs><path d="M0 0h-3.5" id="m912b2c2821" stroke="#000" stroke-width=".8"/></defs><use x="57.6" xlink:href="#m912b2c2821" y="264.921" stroke="#000" stroke-width=".8"/></g><text x="50.6" y="268.72" font-family="DejaVu Sans" font-size="10" font-weight="400" text-anchor="end" id="text_10">100</text></g><g id="ytick_2"><use x="57.6" xlink:href="#m912b2c2821" y="213.334" stroke="#000" stroke-width=".8" id="line2d_10"/><text x="50.6" y="217.133" font-family="DejaVu Sans" font-size="10" font-weight="400" text-anchor="end" id="text_11">200</text></g><g id="ytick_3"><use x="57.6" xlink:href="#m912b2c2821" y="161.747" stroke="#000" stroke-width=".8" id="line2d_11"/><text x="50.6" y="165.547" font-family="DejaVu Sans" font-size="10" font-weight="400" text-anchor="end" id="text_12">300</text></g><g id="ytick_4"><use x="57.6" xlink:href="#m912b2c2821" y="110.161" stroke="#000" stroke-width=".8" id="line2d_12"/><text x="50.6" y="113.96" font-family="DejaVu Sans" font-size="10" font-weight="400" text-anchor="end" id="text_13">400</text></g><g id="ytick_5"><use x="57.6" xlink:href="#m912b2c2821" y="58.574" stroke="#000" stroke-width=".8" id="line2d_13"/><text x="50.6" y="62.373" font-family="DejaVu Sans" font-size="10" font-weight="400" text-anchor="end" id="text_14">500</text></g><text transform="rotate(-90 25.433 174.528)" x="25.433" y="174.528" font-family="DejaVu Sans" font-size="10" font-weight="400" text-anchor="middle" id="text_15">Average Bits Consumed Per Call</text></g><path clip-path="url(#paea371bb87)" d="M73.833 295.47l4.328-.971 4.33-.548 4.328.32 4.329-1.27 4.328.863 4.33.597 4.328-.524 4.329-2.77 4.328 3.767 4.329-.839 4.329.696 4.328-.213 4.33-2.523 4.328-1.077 4.329 4.51 4.328-1.308m8.658-.573l4.329.189 4.328 1.396 4.329-.324 4.329-1.032 4.328-3.145 4.33 2.21 4.328-3.023 4.329 2.595 4.328 2.333 4.33-8.85 4.328 7.166 4.329-4.015 4.328-1.14 4.329 1.282 4.329.955 4.328-3.305 4.33.159 4.328 1.667 4.329-1.736 4.328-1.652 4.33.461 4.328-1.195 4.329-1.668 4.328.468m8.658.629l4.328 2.113 4.33-5.023 4.328 1.065 4.329-.972 4.328 3.22 4.33-6.215 4.328 3.485 4.329-.217 4.328-1.61 4.329-.972 4.329-1.062 4.328.265 4.33-9.676 4.328 9.487 4.329-2.022 4.328-7.74m12.987 4.512l4.328.739 4.329-9.18 4.329 2.965 4.328-.102m34.63-26.968" fill="none" stroke="#1f77b4" stroke-linecap="square" stroke-width="1.5" id="line2d_14"/><path clip-path="url(#paea371bb87)" d="M73.833 275.84l4.328-3.084 4.33 2.512 4.328-.882 4.329-1.404 4.328.527 4.33-.174 4.328-2.586 4.329 2.996 4.328.348 4.329.536 4.329-1.092 4.328 1.99 4.33-2.67 4.328 1.687 4.329-7.78 4.328 1.195 4.33-.724 4.328-.464 4.329.945 4.328-1.911 4.329 2.15 4.329-3.255 4.328 4.803 4.33-.897 4.328-1.167 4.329-5.465 4.328 1.84 4.33-6.187 4.328 2.872 4.329-.109 4.328 1.82 4.329-3.587 4.329 1.518 4.328-4.623 4.33-4.168 4.328-1.65 4.329 4.432 4.328-1.885 4.33-.115 4.328-.471 4.329-5.168 4.328 2.403 4.329-.662 4.329 5.62 4.328-19.913 4.33 1.251 4.328 5.087 4.329-7.918 4.328-3.494 4.33 10.834 4.328-12.662 4.329 1.66 4.328-8.772 4.329 2.33 4.329-9.445 4.328 4.506 4.33 3.986 4.328-5.153 4.329-7.856 4.328 2.575m8.658-17.593l4.329 5.656m17.314-44.3" fill="none" stroke="#ff7f0e" stroke-linecap="square" stroke-width="1.5" id="line2d_15"/><path clip-path="url(#paea371bb87)" d="M160.407 53.568l4.329 18.397m8.657 47.912l4.33-9.518 4.328 24.543m8.657 27.147l4.33.04 4.328 19.424 4.329 8.38 4.328-8.148 4.329 17.03 4.329 11.226 4.328 7.42m8.658 1.97l4.329-5.956 4.328 20.55 4.33-10 4.328 6.588 4.329 4.818 4.328-.143 4.329 13.196 4.329-1.643 4.328 3.17 4.33 6.668 4.328 3.582m8.657 4.504" fill="none" stroke="#2ca02c" stroke-linecap="square" stroke-width="1.5" id="line2d_16"/><path d="M57.6 307.584V41.472" fill="none" stroke="#000" stroke-linecap="square" stroke-width=".8" id="patch_3"/><path d="M414.72 307.584V41.472" fill="none" stroke="#000" stroke-linecap="square" stroke-width=".8" id="patch_4"/><path d="M57.6 307.584h357.12" fill="none" stroke="#000" stroke-linecap="square" stroke-width=".8" id="patch_5"/><path d="M57.6 41.472h357.12" fill="none" stroke="#000" stroke-linecap="square" stroke-width=".8" id="patch_6"/><text x="236.16" y="35.472" font-family="DejaVu Sans" font-size="12" font-weight="400" text-anchor="middle" id="text_16">Avg. Bits Consumed</text><g id="legend_1"><path d="M291.172 93.506H407.72q2 0 2-2V48.472q0-2-2-2H291.172q-2 0-2 2v43.034q0 2 2 2z" fill="#fff" opacity=".8" stroke="#ccc" id="patch_7"/><path d="M293.172 54.57h20" fill="none" stroke="#1f77b4" stroke-linecap="square" stroke-width="1.5" id="line2d_17"/><text x="321.172" y="58.07" font-family="DejaVu Sans" font-size="10" font-weight="400" id="text_17">2014 Add. x+0.1</text><path d="M293.172 69.249h20" fill="none" stroke="#ff7f0e" stroke-linecap="square" stroke-width="1.5" id="line2d_19"/><text x="321.172" y="72.749" font-family="DejaVu Sans" font-size="10" font-weight="400" id="text_18">2016 Add. x+0.1</text><path d="M293.172 83.927h20" fill="none" stroke="#2ca02c" stroke-linecap="square" stroke-width="1.5" id="line2d_21"/><text x="321.172" y="87.427" font-family="DejaVu Sans" font-size="10" font-weight="400" id="text_19">2019 Add. x+0.1</text></g></g></g><defs><clipPath id="paea371bb87"><path d="M57.6 41.472h357.12v266.112H57.6z"/></clipPath></defs></svg>
